Assets/Icons/technology/display.svg

<svg enable-background="new 0 0 60 60" viewBox="0 0 60 60" xmlns="http://www.w3.org/2000/svg"><path d="m56.5 7.5h-53c-1.1 0-2 .9-2 2v25.5c0 6.35 5.15 11.5 11.5 11.5h11.5v3h-5c-.28 0-.5.22-.5.5 0 1.38 1.12 2.5 2.5 2.5h19c.28 0 .5-.22.5-.5v-2c0-.28-.22-.5-.5-.5h-5v-3h21c1.1 0 2-.9 2-2v-35c0-1.1-.9-2-2-2zm-52 3h51v25h-50.97c-.01-.17-.03-.33-.03-.5zm28 39h-5v-3h5zm-19.5-6c-3.45 0-6.4-2.05-7.74-5h50.24v5z"/></svg>

<?xml version="1.0" encoding="utf-8"?>
<!-- Generator: Adobe Illustrator 21.1.0, SVG Export Plug-In . SVG Version: 6.00 Build 0)  -->
<svg version="1.1" id="eps" xmlns="http://www.w3.org/2000/svg" xmlns:xlink="http://www.w3.org/1999/xlink" x="0px" y="0px"
	 viewBox="0 0 60 60" style="enable-background:new 0 0 60 60;" xml:space="preserve">
<path d="M56.5,7.5h-53c-1.1,0-2,0.9-2,2V35c0,6.35,5.15,11.5,11.5,11.5h11.5v3h-5c-0.28,0-0.5,0.22-0.5,0.5c0,1.38,1.12,2.5,2.5,2.5
	h19c0.28,0,0.5-0.22,0.5-0.5v-2c0-0.28-0.22-0.5-0.5-0.5h-5v-3h21c1.1,0,2-0.9,2-2v-35C58.5,8.4,57.6,7.5,56.5,7.5z M4.5,10.5h51v25
	H4.53C4.52,35.33,4.5,35.17,4.5,35V10.5z M32.5,49.5h-5v-3h5V49.5z M13,43.5c-3.45,0-6.4-2.05-7.74-5H55.5v5H13z"/>
</svg>
